components/ui-node-icon/src/clean/clean.medium.svg

<svg width="24" height="24" viewBox="0 0 24 24" fill="none" xmlns="http://www.w3.org/2000/svg">
  <path fill-rule="evenodd" clip-rule="evenodd" d="M20.7207 10.4798C21.2264 10.6718 21.2353 11.6406 20.7373 11.8518C17.4085 13.2639 14.9629 16.0256 13.7701 18.9361C13.5691 19.4266 12.6441 19.4465 12.4331 18.9603C11.1287 15.9542 8.6955 13.1414 5.13335 11.7605C4.63601 11.5677 4.62496 10.6721 5.12405 10.4839C8.76737 9.10977 11.1098 6.76734 12.4839 3.12402C12.6721 2.62493 13.5426 2.64267 13.7158 3.14716C14.9512 6.74474 17.3205 9.18896 20.7207 10.4798ZM7.03959 14.9019C6.99372 14.6726 6.795 14.5057 6.56119 14.5001C6.32738 14.4946 6.12095 14.6518 6.06423 14.8787C5.83364 15.801 5.47514 16.4762 4.97567 16.9756C4.47621 17.4751 3.80107 17.8336 2.87873 18.0642C2.65184 18.1209 2.49458 18.3274 2.50014 18.5612C2.50571 18.795 2.67261 18.9937 2.90194 19.0396C4.64369 19.3879 5.7078 20.767 6.06576 22.1272C6.12499 22.3523 6.33166 22.5067 6.56428 22.4998C6.7969 22.4928 6.99395 22.3262 7.03959 22.098C7.30016 20.7951 8.44484 19.3876 10.103 19.0385C10.3344 18.9898 10.5 18.7857 10.5 18.5493C10.5 18.3128 10.3344 18.1087 10.103 18.06C9.24635 17.8796 8.57639 17.526 8.07733 17.0164C7.57783 16.5062 7.22141 15.811 7.03959 14.9019ZM6.52965 20.6184C6.07692 19.7963 5.39118 19.0427 4.46854 18.5481C4.92824 18.3181 5.33287 18.0327 5.68278 17.6828C6.0209 17.3446 6.29879 16.9554 6.52469 16.5148C6.74468 16.968 7.02374 17.3697 7.36282 17.716C7.70315 18.0636 8.09646 18.3477 8.53717 18.5706C7.65454 19.0643 6.96747 19.8068 6.52965 20.6184Z" fill="var(--tbl--colors--icons--clean--primary)"/>
</svg>

<svg xmlns="http://www.w3.org/2000/svg" width="24" height="24" fill="none" viewBox="0 0 24 24">
  <path fill="var(--tbl--colors--icons--clean--primary)" fill-rule="evenodd" d="M20.72 10.48c.506.192.515 1.16.017 1.372-3.328 1.412-5.774 4.174-6.967 7.084-.2.49-1.126.51-1.337.024-1.304-3.006-3.738-5.819-7.3-7.2-.497-.192-.508-1.088-.009-1.276 3.643-1.374 5.986-3.717 7.36-7.36.188-.5 1.059-.481 1.232.023C14.95 6.745 17.32 9.19 20.72 10.48ZM7.04 14.902a.5.5 0 0 0-.976-.023c-.23.922-.589 1.597-1.088 2.097-.5.5-1.175.858-2.097 1.088a.5.5 0 0 0 .023.976c1.742.348 2.806 1.727 3.164 3.087a.5.5 0 0 0 .974-.029c.26-1.303 1.405-2.71 3.063-3.06a.5.5 0 0 0 0-.978c-.857-.18-1.527-.534-2.026-1.044-.5-.51-.856-1.205-1.037-2.114Zm-.51 5.716a5.146 5.146 0 0 0-2.061-2.07c.46-.23.864-.515 1.214-.865.338-.338.616-.728.842-1.168.22.453.499.855.838 1.201.34.348.733.632 1.174.855a5.174 5.174 0 0 0-2.007 2.047Z" clip-rule="evenodd"/>
</svg>
